X: 189
T: No_48_Cow_Creek_Hunting_Dance_Song_(o).krn
N: Derived from No_48_Cow_Creek_Hunting_Dance_Song_(o).krn
%%abc-version 2.0
%%abcx-abcm2ps-target-version 5.9.1 (29 Sep 2008)
%%abc-creator hum2abc beta
%%abcx-conversion-date 2019/03/15 08:38:45
%%humdrum-veritas 1320285487
%%humdrum-veritas-data 1095941054
%%linebreak <none>
%%barnumbers 0
L: 1/8
M: 2/4
K: F clef=bass
[K:clef=bass][M:2/4]F,2C3/C/ [I:setbarnb 2]| 
C4 | 
B,2A,3/F,/ | 
F,4 | 
A,2C2 | 
B,2z2 | 
B,2A,3/F,/ | 
F,4 | 
A,2A,2 | 
F,4 | 
A,3/F,/ F,3/E,/ | 
F,4 | 
F,2F,2 | 
z4 | 
F,3/F,/ F,3/E,/ | 
F,4 | 
A,2A,F, | 
A,2z2 | 
B,2A,3/F,/ | 
F,4 | 
B,A,B,2 | 
F,4 | 
A,3/F,/ F,3/E,/ | 
F,4 | 
F,E,F,2 | 
z4 | 
F,2F,3/E,/ | 
F,4 :|]  



